sprites/streets-v8/_svg/school-11.svg

<?xml version="1.0" encoding="UTF-8" standalone="no"?>
<svg
   xmlns:dc="http://purl.org/dc/elements/1.1/"
   xmlns:cc="http://creativecommons.org/ns#"
   xmlns:rdf="http://www.w3.org/1999/02/22-rdf-syntax-ns#"
   xmlns:svg="http://www.w3.org/2000/svg"
   xmlns="http://www.w3.org/2000/svg"
   id="svg2"
   width="19"
   height="19"
   viewBox="0 0 19 19"
   version="1.1">
  <metadata
     id="metadata14">
    <rdf:RDF>
      <cc:Work
         rdf:about="">
        <dc:format>image/svg+xml</dc:format>
        <dc:type
           rdf:resource="http://purl.org/dc/dcmitype/StillImage" />
      </cc:Work>
    </rdf:RDF>
  </metadata>
  <defs
     id="defs12" />
  <ellipse
     id="ellipse4"
     ry="9.5"
     rx="9.5"
     cy="9.5"
     cx="9.5"
     style="fill:#ffffff;stroke:none;" />
  <ellipse
     id="ellipse6"
     rx="8.5"
     ry="8.5"
     cy="9.5"
     cx="9.5"
     style="fill:#b5a462;stroke:none;" />
  <g
     id="g8"
     transform="translate(4,4)">
    <metadata     id="metadata8"><rdf:RDF><cc:Work         rdf:about=""><dc:format>image/svg+xml</dc:format><dc:type           rdf:resource="http://purl.org/dc/dcmitype/StillImage" /><dc:title /></cc:Work></rdf:RDF></metadata><defs     id="defs6" /><g     style="fill:#ffffff;fill-opacity:1"     transform="translate(-31.5,4.5)"     id="g6136-7" /><path     id="path6911"     d="M 8.5664062 0.14453125 C 8.3906251 0.109375 8.25 0.25 8.25 0.25 L 5.5 3 C 5.5 3 5 3.5 5 4 L 5 5 L 6.109375 5 C 6.5 5 7 4.5 7 4.5 L 9.75 1.75 C 10 1.5 9.75 1.25 9.75 1.25 L 9.5 1 L 9 0.5 L 8.75 0.25 C 8.6875 0.1875 8.6250001 0.15625 8.5664062 0.14453125 z M 1.4941406 2.0136719 C 1.2162944 1.9698963 1 2.125 1 2.5 L 1 7.5 L 4.5 9 L 4.5 9.5 C 4.5 10 5 10 5 10 L 6 10 C 6 10 6.5 10 6.5 9.5 L 6.5 9 L 10 7.5 L 10 2.9140625 L 7.7070312 5.2070312 C 7.7070312 5.2070312 7.5310495 5.3856779 7.2851562 5.5625 C 7.0392632 5.7393221 6.7313542 6 6.109375 6 L 6 6 L 6 8 L 5 8 L 5 6 C 4.4477381 5.9999448 4.0000552 5.5522619 4 5 L 4 4 C 4 3.7225765 4.0619586 3.509175 4.1386719 3.3164062 L 1.7871094 2.1230469 C 1.6864907 2.0649546 1.586756 2.0282637 1.4941406 2.0136719 z M 6.25 3 L 7 3.75 C 6.75 4 6.3125 4.5 6 4.5 L 5.5 4.5 L 5.5 4 C 5.5 3.6328125 6 3.25 6.25 3 z "     style="fill:#ffffff;fill-opacity:1;fill-rule:evenodd;stroke:none;stroke-width:1px;stroke-linecap:butt;stroke-linejoin:miter;stroke-opacity:1" />
  </g>
</svg>

<?xml version="1.0" encoding="utf-8"?>
<!-- Generator: Adobe Illustrator 17.1.0, SVG Export Plug-In . SVG Version: 6.00 Build 0)  -->
<!DOCTYPE svg PUBLIC "-//W3C//DTD SVG 1.1//EN" "http://www.w3.org/Graphics/SVG/1.1/DTD/svg11.dtd">
<svg version="1.1"
	 id="svg2" xmlns:svg="http://www.w3.org/2000/svg" xmlns:cc="http://creativecommons.org/ns#" xmlns:dc="http://purl.org/dc/elements/1.1/" xmlns:rdf="http://www.w3.org/1999/02/22-rdf-syntax-ns#"
	 xmlns="http://www.w3.org/2000/svg" xmlns:xlink="http://www.w3.org/1999/xlink" x="0px" y="0px" width="19px" height="19px"
	 viewBox="0 0 19 19" enable-background="new 0 0 19 19" xml:space="preserve">
<ellipse id="ellipse4" fill="#FFFFFF" cx="9.5" cy="9.5" rx="9.5" ry="9.5"/>
<ellipse id="ellipse6" fill="#B5A462" cx="9.5" cy="9.5" rx="8.5" ry="8.5"/>
<g id="g8" transform="translate(4,4)">
	<g id="g6136-7" transform="translate(-31.5,4.5)">
	</g>
	<path id="path6911" fill="#FFFFFF" d="M8.6,0.1c-0.2,0-0.3,0.1-0.3,0.1L5.5,3C5.5,3,5,3.5,5,4v1h1.1C6.5,5,7,4.5,7,4.5l2.8-2.8
		c0.2-0.2,0-0.5,0-0.5L9.5,1L9,0.5L8.8,0.2C8.7,0.2,8.6,0.2,8.6,0.1z M1.5,2C1.2,2,1,2.1,1,2.5v5L4.5,9v0.5C4.5,10,5,10,5,10h1
		c0,0,0.5,0,0.5-0.5V9L10,7.5V2.9L7.7,5.2c0,0-0.2,0.2-0.4,0.4C7,5.7,6.7,6,6.1,6H6v2H5V6C4.4,6,4,5.6,4,5V4c0-0.3,0.1-0.5,0.1-0.7
		L1.8,2.1C1.7,2.1,1.6,2,1.5,2z M6.2,3L7,3.8C6.8,4,6.3,4.5,6,4.5H5.5V4C5.5,3.6,6,3.2,6.2,3z"/>
</g>
</svg>
